symbols/web/8mp/materialsymbolsrounded/8mp_wght600gradN25fill1_40px.svg

<svg xmlns="http://www.w3.org/2000/svg" height="40" width="40"><path d="M17.5 19.083h3.75q.625 0 1.146-.5.521-.5.521-1.125v-6.541q0-.625-.521-1.146-.521-.521-1.146-.521H17.5q-.625 0-1.125.521t-.5 1.146v6.541q0 .625.5 1.125t1.125.5ZM18 13.5v-2.583h2.792V13.5Zm0 4.167v-2.75h2.792v2.75Zm-9.875 17.75q-1.458 0-2.5-1.042t-1.042-2.5V8.125q0-1.458 1.042-2.5t2.5-1.042h23.75q1.458 0 2.5 1.042t1.042 2.5v23.75q0 1.458-1.042 2.5t-2.5 1.042ZM11 30.75q.458 0 .771-.312.312-.313.312-.771v-6.375h2.042v4q0 .416.313.729.312.312.77.312.459 0 .771-.312.313-.313.313-.771v-3.958h2.25v6.416q0 .417.312.73.313.312.771.312t.771-.312q.312-.313.312-.771v-6.875q0-.625-.52-1.146-.521-.521-1.146-.521h-7.459q-.625 0-1.125.521t-.5 1.146v6.916q0 .417.313.73.312.312.729.312Zm13.042 0q.458 0 .77-.312.313-.313.313-.771v-1.375h3.25q.625 0 1.146-.5.521-.5.521-1.125v-3.875q0-.625-.521-1.146-.521-.521-1.146-.521h-3.75q-.708 0-1.187.479-.48.479-.48 1.188v6.916q0 .417.313.73.312.312.771.312Zm1.083-7.458h2.75v2.875h-2.75Z"/></svg>

<svg xmlns="http://www.w3.org/2000/svg" height="40" width="40"><path d="M17.5 19.083H21.25Q21.875 19.083 22.396 18.583Q22.917 18.083 22.917 17.458V10.917Q22.917 10.292 22.396 9.771Q21.875 9.25 21.25 9.25H17.5Q16.875 9.25 16.375 9.771Q15.875 10.292 15.875 10.917V17.458Q15.875 18.083 16.375 18.583Q16.875 19.083 17.5 19.083ZM18 13.5V10.917H20.792V13.5ZM18 17.667V14.917H20.792V17.667ZM8.125 35.417Q6.667 35.417 5.625 34.375Q4.583 33.333 4.583 31.875V8.125Q4.583 6.667 5.625 5.625Q6.667 4.583 8.125 4.583H31.875Q33.333 4.583 34.375 5.625Q35.417 6.667 35.417 8.125V31.875Q35.417 33.333 34.375 34.375Q33.333 35.417 31.875 35.417ZM11 30.75Q11.458 30.75 11.771 30.438Q12.083 30.125 12.083 29.667V23.292H14.125V27.292Q14.125 27.708 14.438 28.021Q14.75 28.333 15.208 28.333Q15.667 28.333 15.979 28.021Q16.292 27.708 16.292 27.25V23.292H18.542V29.708Q18.542 30.125 18.854 30.438Q19.167 30.75 19.625 30.75Q20.083 30.75 20.396 30.438Q20.708 30.125 20.708 29.667V22.792Q20.708 22.167 20.188 21.646Q19.667 21.125 19.042 21.125H11.583Q10.958 21.125 10.458 21.646Q9.958 22.167 9.958 22.792V29.708Q9.958 30.125 10.271 30.438Q10.583 30.75 11 30.75ZM24.042 30.75Q24.5 30.75 24.812 30.438Q25.125 30.125 25.125 29.667V28.292H28.375Q29 28.292 29.521 27.792Q30.042 27.292 30.042 26.667V22.792Q30.042 22.167 29.521 21.646Q29 21.125 28.375 21.125H24.625Q23.917 21.125 23.438 21.604Q22.958 22.083 22.958 22.792V29.708Q22.958 30.125 23.271 30.438Q23.583 30.75 24.042 30.75ZM25.125 23.292H27.875V26.167H25.125Z"/></svg>
